svg/SJJB-OpenStreetMapIcons/place_of_worship/bahai3.svg

<?xml version="1.0" encoding="UTF-8" standalone="no"?>
<!-- Created with Inkscape (http://www.inkscape.org/) -->
<svg
   xmlns:dc="http://purl.org/dc/elements/1.1/"
   xmlns:cc="http://creativecommons.org/ns#"
   xmlns:rdf="http://www.w3.org/1999/02/22-rdf-syntax-ns#"
   xmlns:svg="http://www.w3.org/2000/svg"
   xmlns="http://www.w3.org/2000/svg"
   xmlns:sodipodi="http://sodipodi.sourceforge.net/DTD/sodipodi-0.dtd"
   xmlns:inkscape="http://www.inkscape.org/namespaces/inkscape"
   version="1.0"
   width="580"
   height="580"
   id="svg2"
   sodipodi:version="0.32"
   inkscape:version="0.46"
   sodipodi:docname="place_of_worship_bahai3.svg"
   sodipodi:docbase="s:\Data\FacilityIcons"
   inkscape:output_extension="org.inkscape.output.svg.inkscape">
  <metadata
     id="metadata2975">
    <rdf:RDF>
      <cc:Work
         rdf:about="">
        <dc:format>image/svg+xml</dc:format>
        <dc:type
           rdf:resource="http://purl.org/dc/dcmitype/StillImage" />
        <cc:license
           rdf:resource="http://web.resource.org/cc/PublicDomain" />
        <dc:language>en</dc:language>
      </cc:Work>
    </rdf:RDF>
  </metadata>
  <sodipodi:namedview
     inkscape:window-height="1003"
     inkscape:window-width="1400"
     inkscape:pageshadow="2"
     inkscape:pageopacity="0.0"
     guidetolerance="10.0"
     gridtolerance="10.0"
     objecttolerance="10.0"
     borderopacity="1.0"
     bordercolor="#666666"
     pagecolor="#ffffff"
     id="base"
     inkscape:zoom="0.65172414"
     inkscape:cx="-57.954519"
     inkscape:cy="172.10413"
     inkscape:window-x="0"
     inkscape:window-y="20"
     inkscape:current-layer="svg2"
     showgrid="false" />
  <defs
     id="defs4">
    <inkscape:perspective
       sodipodi:type="inkscape:persp3d"
       inkscape:vp_x="0 : 290 : 1"
       inkscape:vp_y="0 : 1000 : 0"
       inkscape:vp_z="580 : 290 : 1"
       inkscape:persp3d-origin="290 : 193.33333 : 1"
       id="perspective2441" />
    <inkscape:perspective
       id="perspective2466"
       inkscape:persp3d-origin="372.04724 : 350.78739 : 1"
       inkscape:vp_z="744.09448 : 526.18109 : 1"
       inkscape:vp_y="0 : 1000 : 0"
       inkscape:vp_x="0 : 526.18109 : 1"
       sodipodi:type="inkscape:persp3d" />
    <inkscape:perspective
       id="perspective3333"
       inkscape:persp3d-origin="372.04724 : 350.78739 : 1"
       inkscape:vp_z="744.09448 : 526.18109 : 1"
       inkscape:vp_y="0 : 1000 : 0"
       inkscape:vp_x="0 : 526.18109 : 1"
       sodipodi:type="inkscape:persp3d" />
    <inkscape:perspective
       id="perspective3401"
       inkscape:persp3d-origin="372.04724 : 350.78739 : 1"
       inkscape:vp_z="744.09448 : 526.18109 : 1"
       inkscape:vp_y="0 : 1000 : 0"
       inkscape:vp_x="0 : 526.18109 : 1"
       sodipodi:type="inkscape:persp3d" />
    <inkscape:perspective
       id="perspective3464"
       inkscape:persp3d-origin="372.04724 : 350.78739 : 1"
       inkscape:vp_z="744.09448 : 526.18109 : 1"
       inkscape:vp_y="0 : 1000 : 0"
       inkscape:vp_x="0 : 526.18109 : 1"
       sodipodi:type="inkscape:persp3d" />
    <inkscape:perspective
       id="perspective3581"
       inkscape:persp3d-origin="225 : 150 : 1"
       inkscape:vp_z="450 : 225 : 1"
       inkscape:vp_y="0 : 1000 : 0"
       inkscape:vp_x="0 : 225 : 1"
       sodipodi:type="inkscape:persp3d" />
    <inkscape:perspective
       id="perspective4312"
       inkscape:persp3d-origin="225 : 150 : 1"
       inkscape:vp_z="450 : 225 : 1"
       inkscape:vp_y="0 : 1000 : 0"
       inkscape:vp_x="0 : 225 : 1"
       sodipodi:type="inkscape:persp3d" />
  </defs>
  <g
     id="g1327">
    <path
       d="M 66.275,1.768 C 24.94,1.768 1.704,23.139 1.704,66.804 L 1.704,516.927 C 1.704,557.771 22.599,579.156 63.896,579.156 L 515.92,579.156 C 557.227,579.156 578.149,558.841 578.149,516.927 L 578.149,66.804 C 578.149,24.203 557.227,1.768 514.628,1.768 C 514.624,1.768 66.133,1.625 66.275,1.768 z "
       style="fill:#111;stroke:#eee;stroke-width:3.40799999"
       id="path1329" />
  </g>
  <path
     sodipodi:nodetypes="cssscccssssssssssssssssssssssssssssssssccscccssssssssssssssssssssssssssscccscccsc"
     id="path1873"
     d="M 211.93658,502.90415 C 211.62064,467.41944 210.72008,437.74441 209.93535,436.95967 C 208.44146,435.46579 144.37645,444.49134 106.13848,451.58271 C 84.17773,455.65541 76.216627,454.51689 76.216627,447.30367 C 76.216627,445.27966 94.355879,421.12254 116.52608,393.62116 L 156.83549,343.6186 L 143.36752,335.6723 C 135.96011,331.30184 129.10233,327.72599 128.12801,327.72599 C 127.15365,327.72599 117.24965,321.8749 106.11914,314.72355 C 94.988602,307.57217 77.514623,296.99986 67.288108,291.22949 C 52.866925,283.09223 48.962908,278.86966 49.890838,272.41255 C 50.86408,265.64018 54.692944,263.545 70.417537,261.18033 C 110.93294,255.08765 172.86817,241.35355 172.86817,238.46195 C 172.86817,236.80159 164.00939,210.0363 153.18198,178.98348 C 133.88137,123.62964 132.11121,111.22655 143.51188,111.22655 C 146.6364,111.22655 171.68631,124.2745 199.17838,140.22202 C 226.67049,156.16951 250.83333,169.21746 252.8736,169.21746 C 254.91392,169.21746 261.5262,155.01809 267.56758,137.66334 C 291.78321,68.100199 299.49089,51.353397 307.88446,50.064915 C 312.31887,49.384208 316.70051,51.123944 317.62144,53.93098 C 319.32297,59.117252 342.18875,122.83827 353.09507,152.78671 C 356.38602,161.82364 360.50716,169.21746 362.25312,169.21746 C 363.99906,169.21746 386.90657,156.47858 413.15867,140.90877 C 467.8955,108.44507 471.29659,106.90623 478.48757,111.35049 C 482.7678,113.99581 479.86579,126.00059 463.38728,173.8163 C 452.16794,206.37145 442.66697,234.59806 442.27398,236.54207 C 441.6009,239.87157 508.60064,254.63111 548.84267,260.01835 C 564.46924,262.11026 567.18597,263.73796 567.06894,270.93845 C 566.95988,277.64765 556.1501,285.7836 514.87711,310.22028 C 486.24724,327.1713 462.82279,342.51553 462.82279,344.3186 C 462.82279,346.12165 480.22008,369.0158 501.48342,395.19457 C 522.74675,421.3733 540.14402,444.73799 540.14402,447.11613 C 540.14402,453.23409 525.13482,452.53767 466.68886,443.70784 C 438.53975,439.45517 413.10639,435.97573 410.17029,435.97573 C 405.83914,435.97573 404.83187,448.3764 404.83187,501.69878 C 404.83187,585.22233 404.77291,585.2434 350.707,521.02908 C 329.22354,495.51307 310.07427,474.63634 308.15303,474.63634 C 306.23179,474.63634 287.69024,495.51307 266.94955,521.02908 C 239.83003,554.39257 226.89015,567.42181 220.87507,567.42181 C 212.6574,567.42181 212.5009,566.29242 211.93658,502.90415 z M 277.49207,443.70784 C 291.13478,426.69718 304.92554,412.79323 308.13822,412.81017 C 311.35088,412.82714 325.28765,426.70696 339.10882,443.65423 L 364.23823,474.46743 L 365.20396,440.72383 C 366.53698,394.14787 367.92598,389.57838 380.74263,389.60456 C 386.54954,389.61637 397.3897,391.18979 404.83187,393.10098 C 425.44692,398.39506 451.22462,400.80922 451.22462,397.44582 C 451.22462,395.79606 440.60987,381.14847 427.63629,364.8957 C 414.66273,348.6429 404.95329,332.98586 406.05989,330.10222 C 407.16643,327.21862 422.21024,316.51048 439.49057,306.30635 C 456.77093,296.10226 471.66637,286.52866 472.59155,285.03165 C 473.51675,283.53467 465.17328,280.94259 454.05055,279.27152 C 442.92776,277.60041 432.95746,275.99074 431.89429,275.69449 C 430.83113,275.3982 421.69756,273.82954 411.59748,272.20855 C 388.9489,268.57362 388.46579,264.79834 404.84498,219.44001 C 411.23117,201.7549 415.69933,186.52838 414.77421,185.60328 C 413.84911,184.67815 398.02215,192.79098 379.60319,203.63178 C 361.18419,214.47258 344.59912,223.34233 342.74748,223.34233 C 337.93121,223.34233 333.47016,213.8733 321.2983,177.81432 C 315.39571,160.32805 309.4772,146.02111 308.146,146.02111 C 306.81483,146.02111 299.75397,162.72237 292.45528,183.13506 C 285.15653,203.54771 277.14846,221.07807 274.65948,222.09139 C 270.4338,223.81178 256.43727,216.95846 216.36136,193.54594 C 207.32445,188.26652 199.93059,185.71341 199.93059,187.87238 C 199.93059,190.03134 205.14979,206.5848 211.52879,224.65788 C 217.9078,242.73094 223.12697,260.18802 223.12697,263.45137 C 223.12697,269.6775 213.90869,272.20012 164.08277,279.60891 C 153.93493,281.11784 144.80346,283.69333 143.79055,285.33227 C 142.77763,286.97116 147.67397,291.52613 154.67127,295.45435 C 193.97119,317.51704 207.658,326.26531 209.27517,330.35586 C 210.26737,332.86542 206.05885,341.56406 199.9229,349.68614 C 193.787,357.80825 182.47416,372.83977 174.7833,383.08951 L 160.79987,401.72544 L 179.39872,399.17937 C 189.62807,397.77899 204.08663,395.05667 211.52879,393.1297 C 218.97096,391.20271 229.84426,389.61637 235.69167,389.60456 L 246.32334,389.58298 L 246.37612,423.41103 C 246.42091,452.11232 248.84502,474.63634 251.88915,474.63634 C 252.32803,474.63634 263.84935,460.71852 277.49207,443.70784 z"
     style="opacity:0.25;fill:#ffffff" />
  <path
     style="opacity:1;fill:#ffffff"
     d="M 171.93658,462.90415 C 171.62064,427.41944 170.72008,397.74441 169.93535,396.95967 C 168.44146,395.46579 104.37645,404.49134 66.138477,411.58271 C 44.17773,415.65541 36.216627,414.51689 36.216627,407.30367 C 36.216627,405.27966 54.355879,381.12254 76.526078,353.62116 L 116.83549,303.6186 L 103.36752,295.6723 C 95.96011,291.30184 89.10233,287.72599 88.12801,287.72599 C 87.15365,287.72599 77.249654,281.8749 66.119139,274.72355 C 54.988602,267.57217 37.514623,256.99986 27.288108,251.22949 C 12.866925,243.09223 8.962908,238.86966 9.890838,232.41255 C 10.86408,225.64018 14.692944,223.545 30.417537,221.18033 C 70.932938,215.08765 132.86817,201.35355 132.86817,198.46195 C 132.86817,196.80159 124.00939,170.0363 113.18198,138.98348 C 93.88137,83.62964 92.11121,71.226548 103.51188,71.226548 C 106.6364,71.226548 131.68631,84.2745 159.17838,100.22202 C 186.67049,116.16951 210.83333,129.21746 212.8736,129.21746 C 214.91392,129.21746 221.5262,115.01809 227.56758,97.66334 C 251.78321,28.100199 259.49089,11.353397 267.88446,10.064915 C 272.31887,9.384208 276.70051,11.123944 277.62144,13.93098 C 279.32297,19.117252 302.18875,82.83827 313.09507,112.78671 C 316.38602,121.82364 320.50716,129.21746 322.25312,129.21746 C 323.99906,129.21746 346.90657,116.47858 373.15867,100.90877 C 427.8955,68.445073 431.29659,66.906233 438.48757,71.350493 C 442.7678,73.995813 439.86579,86.00059 423.38728,133.8163 C 412.16794,166.37145 402.66697,194.59806 402.27398,196.54207 C 401.6009,199.87157 468.60064,214.63111 508.84267,220.01835 C 524.46924,222.11026 527.18597,223.73796 527.06894,230.93845 C 526.95988,237.64765 516.1501,245.7836 474.87711,270.22028 C 446.24724,287.1713 422.82279,302.51553 422.82279,304.3186 C 422.82279,306.12165 440.22008,329.0158 461.48342,355.19457 C 482.74675,381.3733 500.14402,404.73799 500.14402,407.11613 C 500.14402,413.23409 485.13482,412.53767 426.68886,403.70784 C 398.53975,399.45517 373.10639,395.97573 370.17029,395.97573 C 365.83914,395.97573 364.83187,408.3764 364.83187,461.69878 C 364.83187,545.22233 364.77291,545.2434 310.707,481.02908 C 289.22354,455.51307 270.07427,434.63634 268.15303,434.63634 C 266.23179,434.63634 247.69024,455.51307 226.94955,481.02908 C 199.83003,514.39257 186.89015,527.42181 180.87507,527.42181 C 172.6574,527.42181 172.5009,526.29242 171.93658,462.90415 z M 237.49207,403.70784 C 251.13478,386.69718 264.92554,372.79323 268.13822,372.81017 C 271.35088,372.82714 285.28765,386.70696 299.10882,403.65423 L 324.23823,434.46743 L 325.20396,400.72383 C 326.53698,354.14787 327.92598,349.57838 340.74263,349.60456 C 346.54954,349.61637 357.3897,351.18979 364.83187,353.10098 C 385.44692,358.39506 411.22462,360.80922 411.22462,357.44582 C 411.22462,355.79606 400.60987,341.14847 387.63629,324.8957 C 374.66273,308.6429 364.95329,292.98586 366.05989,290.10222 C 367.16643,287.21862 382.21024,276.51048 399.49057,266.30635 C 416.77093,256.10226 431.66637,246.52866 432.59155,245.03165 C 433.51675,243.53467 425.17328,240.94259 414.05055,239.27152 C 402.92776,237.60041 392.95746,235.99074 391.89429,235.69449 C 390.83113,235.3982 381.69756,233.82954 371.59748,232.20855 C 348.9489,228.57362 348.46579,224.79834 364.84498,179.44001 C 371.23117,161.7549 375.69933,146.52838 374.77421,145.60328 C 373.84911,144.67815 358.02215,152.79098 339.60319,163.63178 C 321.18419,174.47258 304.59912,183.34233 302.74748,183.34233 C 297.93121,183.34233 293.47016,173.8733 281.2983,137.81432 C 275.39571,120.32805 269.4772,106.02111 268.146,106.02111 C 266.81483,106.02111 259.75397,122.72237 252.45528,143.13506 C 245.15653,163.54771 237.14846,181.07807 234.65948,182.09139 C 230.4338,183.81178 216.43727,176.95846 176.36136,153.54594 C 167.32445,148.26652 159.93059,145.71341 159.93059,147.87238 C 159.93059,150.03134 165.14979,166.5848 171.52879,184.65788 C 177.9078,202.73094 183.12697,220.18802 183.12697,223.45137 C 183.12697,229.6775 173.90869,232.20012 124.08277,239.60891 C 113.93493,241.11784 104.80346,243.69333 103.79055,245.33227 C 102.77763,246.97116 107.67397,251.52613 114.67127,255.45435 C 153.97119,277.51704 167.658,286.26531 169.27517,290.35586 C 170.26737,292.86542 166.05885,301.56406 159.9229,309.68614 C 153.787,317.80825 142.47416,332.83977 134.7833,343.08951 L 120.79987,361.72544 L 139.39872,359.17937 C 149.62807,357.77899 164.08663,355.05667 171.52879,353.1297 C 178.97096,351.20271 189.84426,349.61637 195.69167,349.60456 L 206.32334,349.58298 L 206.37612,383.41103 C 206.42091,412.11232 208.84502,434.63634 211.88915,434.63634 C 212.32803,434.63634 223.84935,420.71852 237.49207,403.70784 z"
     id="path4757"
     sodipodi:nodetypes="cssscccssssssssssssssssssssssssssssssssccscccssssssssssssssssssssssssssscccscccsc" />
</svg>

<svg xmlns="http://www.w3.org/2000/svg" viewBox="0 0 580 580"><path d="m66.28 1.768c-41.34 0-64.57 21.371-64.57 65.04v450.12c0 40.844 20.895 62.23 62.19 62.23h452.02c41.31 0 62.23-20.315 62.23-62.23v-450.12c0-42.601-20.922-65.04-63.52-65.04-.004 0-448.5-.143-448.35 0z" fill="#111" stroke="#eee" stroke-width="3.408"/><g fill="#fff"><path d="m211.94 502.9c-.316-35.485-1.216-65.16-2-65.944-1.494-1.494-65.56 7.532-103.8 14.623-21.961 4.073-29.922 2.934-29.922-4.279 0-2.024 18.14-26.18 40.31-53.683l40.31-50-13.468-7.946c-7.407-4.37-14.265-7.946-15.24-7.946-.974 0-10.878-5.851-22.01-13-11.131-7.151-28.605-17.724-38.831-23.494-14.421-8.137-18.325-12.36-17.397-18.817.973-6.772 4.802-8.868 20.527-11.232 40.515-6.093 102.45-19.827 102.45-22.718 0-1.66-8.859-28.426-19.686-59.48-19.301-55.35-21.07-67.757-9.67-67.757 3.125 0 28.17 13.05 55.667 28.995 27.492 15.947 51.655 28.995 53.695 28.995 2.04 0 8.653-14.199 14.694-31.554 24.22-69.56 31.923-86.31 40.32-87.6 4.434-.681 8.816 1.059 9.737 3.866 1.702 5.186 24.567 68.907 35.474 98.86 3.291 9.04 7.412 16.431 9.158 16.431 1.746 0 24.653-12.739 50.906-28.309 54.737-32.464 58.14-34 65.33-29.558 4.28 2.645 1.378 14.65-15.1 62.47-11.219 32.555-20.72 60.782-21.11 62.726-.673 3.329 66.33 18.09 106.57 23.476 15.627 2.092 18.343 3.72 18.226 10.92-.109 6.709-10.919 14.845-52.19 39.28-28.63 16.951-52.05 32.3-52.05 34.1 0 1.803 17.397 24.697 38.661 50.876 21.263 26.18 38.661 49.543 38.661 51.922 0 6.118-15.01 5.422-73.46-3.408-28.15-4.253-53.58-7.732-56.52-7.732-4.331 0-5.338 12.401-5.338 65.723 0 83.52-.059 83.54-54.12 19.33-21.483-25.516-40.633-46.39-42.554-46.39-1.921 0-20.463 20.877-41.2 46.39-27.12 33.363-40.06 46.39-46.07 46.39-8.218 0-8.374-1.129-8.938-64.52m65.56-59.2c13.643-17.01 27.433-30.915 30.646-30.898 3.213.017 17.15 13.897 30.971 30.844l25.13 30.813.966-33.744c1.333-46.576 2.722-51.15 15.539-51.12 5.807.012 16.647 1.585 24.09 3.496 20.615 5.294 46.39 7.708 46.39 4.345 0-1.65-10.615-16.297-23.588-32.55-12.974-16.253-22.683-31.91-21.576-34.793 1.107-2.884 16.15-13.592 33.431-23.796 17.28-10.204 32.18-19.778 33.1-21.275.925-1.497-7.418-4.089-18.541-5.76-11.123-1.671-21.09-3.281-22.16-3.577-1.063-.296-10.197-1.865-20.297-3.486-22.649-3.635-23.13-7.41-6.752-52.769 6.386-17.685 10.854-32.912 9.929-33.837-.925-.925-16.752 7.188-35.17 18.03-18.419 10.841-35 19.711-36.856 19.711-4.816 0-9.277-9.469-21.449-45.528-5.903-17.486-11.821-31.793-13.152-31.793-1.331 0-8.392 16.701-15.691 37.11-7.299 20.413-15.307 37.943-17.796 38.956-4.226 1.72-18.222-5.133-58.3-28.545-9.04-5.279-16.431-7.833-16.431-5.674 0 2.159 5.219 18.712 11.598 36.786 6.379 18.07 11.598 35.53 11.598 38.793 0 6.226-9.218 8.749-59.04 16.16-10.148 1.509-19.279 4.084-20.292 5.723-1.013 1.639 3.883 6.194 10.881 10.122 39.3 22.06 52.987 30.811 54.604 34.902.992 2.51-3.216 11.208-9.352 19.33-6.136 8.122-17.449 23.15-25.14 33.403l-13.983 18.636 18.599-2.546c10.229-1.4 24.688-4.123 32.13-6.05 7.442-1.927 18.315-3.513 24.16-3.525l10.632-.022.053 33.828c.045 28.701 2.469 51.23 5.513 51.23.439 0 11.96-13.918 25.603-30.929" opacity=".25"/><path d="m171.94 462.9c-.316-35.485-1.216-65.16-2-65.944-1.494-1.494-65.56 7.532-103.8 14.623-21.961 4.073-29.922 2.934-29.922-4.279 0-2.024 18.14-26.18 40.31-53.683l40.31-50-13.468-7.946c-7.407-4.37-14.265-7.946-15.24-7.946-.974 0-10.878-5.851-22.01-13-11.131-7.151-28.605-17.724-38.831-23.494-14.421-8.137-18.325-12.36-17.397-18.817.973-6.772 4.802-8.868 20.527-11.232 40.515-6.093 102.45-19.827 102.45-22.718 0-1.66-8.859-28.426-19.686-59.48-19.301-55.35-21.07-67.757-9.67-67.757 3.125 0 28.17 13.05 55.666 28.995 27.492 15.947 51.655 28.995 53.695 28.995 2.04 0 8.653-14.199 14.694-31.554 24.22-69.56 31.923-86.31 40.32-87.6 4.434-.681 8.816 1.059 9.737 3.866 1.702 5.186 24.567 68.907 35.474 98.86 3.291 9.04 7.412 16.431 9.158 16.431 1.746 0 24.653-12.739 50.906-28.309 54.737-32.464 58.14-34 65.33-29.558 4.28 2.645 1.378 14.65-15.1 62.47-11.219 32.555-20.72 60.782-21.11 62.726-.673 3.329 66.33 18.09 106.57 23.476 15.627 2.092 18.343 3.72 18.226 10.92-.109 6.709-10.919 14.845-52.19 39.28-28.63 16.951-52.05 32.3-52.05 34.1 0 1.803 17.397 24.697 38.661 50.876 21.263 26.18 38.661 49.543 38.661 51.922 0 6.118-15.01 5.422-73.46-3.408-28.15-4.253-53.58-7.732-56.52-7.732-4.331 0-5.338 12.401-5.338 65.723 0 83.52-.059 83.54-54.12 19.33-21.483-25.516-40.633-46.39-42.554-46.39-1.921 0-20.463 20.877-41.2 46.39-27.12 33.363-40.06 46.39-46.07 46.39-8.218 0-8.374-1.129-8.938-64.52m65.56-59.2c13.643-17.01 27.433-30.915 30.646-30.898 3.213.017 17.15 13.897 30.971 30.844l25.13 30.813.966-33.744c1.333-46.576 2.722-51.15 15.539-51.12 5.807.012 16.647 1.585 24.09 3.496 20.615 5.294 46.39 7.708 46.39 4.345 0-1.65-10.615-16.297-23.588-32.55-12.974-16.253-22.683-31.91-21.576-34.793 1.107-2.884 16.15-13.592 33.431-23.796 17.28-10.204 32.18-19.778 33.1-21.275.925-1.497-7.418-4.089-18.541-5.76-11.123-1.671-21.09-3.281-22.16-3.577-1.063-.296-10.197-1.865-20.297-3.486-22.649-3.635-23.13-7.41-6.752-52.769 6.386-17.685 10.854-32.912 9.929-33.837-.925-.925-16.752 7.188-35.17 18.03-18.419 10.841-35 19.711-36.856 19.711-4.816 0-9.277-9.469-21.449-45.528-5.903-17.486-11.821-31.793-13.152-31.793-1.331 0-8.392 16.701-15.691 37.11-7.299 20.413-15.307 37.943-17.796 38.956-4.226 1.72-18.222-5.133-58.3-28.545-9.04-5.279-16.431-7.833-16.431-5.674 0 2.159 5.219 18.712 11.598 36.786 6.379 18.07 11.598 35.53 11.598 38.793 0 6.226-9.218 8.749-59.04 16.16-10.148 1.509-19.279 4.084-20.292 5.723-1.013 1.639 3.883 6.194 10.881 10.122 39.3 22.06 52.987 30.811 54.604 34.902.992 2.51-3.216 11.208-9.352 19.33-6.136 8.122-17.449 23.15-25.14 33.403l-13.983 18.636 18.599-2.546c10.229-1.4 24.688-4.123 32.13-6.05 7.442-1.927 18.315-3.513 24.16-3.525l10.632-.022.053 33.828c.045 28.701 2.469 51.23 5.513 51.23.439 0 11.96-13.918 25.603-30.929"/></g></svg>
